X:133
T:Bung Your Eye
Z:Jack Campin, http://www.campin.me.uk/
F:Jack Campin's Nine-Note Tunebook
% last edit 03-02-2013
M:6/8
L:1/8
Q:3/8=120
K:DMin
E|DED F2G|AGF E2D |CDC E2F|GcA GEC|
  DED F2G|AGF EFG |A2D EDC|D3  D2:|
C|FGA c2d|cAF cAF |CDC E2F|GcA GEC|
  FGA c2d|cAF GA^c|d2D EDC|D3  D2:|

